Origami/22x22/apps/gps.svg

<svg width="22" height="22" version="1" xmlns="http://www.w3.org/2000/svg">
 <path d="m9 1.5v2.2597656a8 8 0 0 0 -5.734375 5.7402344h-2.265625v4h2.2597656a8 8 0 0 0 5.7402344 5.734375v2.265625h4v-2.259766a8 8 0 0 0 5.734375 -5.740234h2.265625v-4h-2.259766a8 8 0 0 0 -5.740234 -5.734375v-2.265625h-4z" style="opacity:.2"/>
 <path d="M 9,1 9,3.2597656 A 8,8 0 0 0 3.265625,9 L 1,9 1,13 3.2597656,13 A 8,8 0 0 0 9,18.734375 L 9,21 l 4,0 0,-2.259766 A 8,8 0 0 0 18.734375,13 L 21,13 21,9 18.740234,9 A 8,8 0 0 0 13,3.265625 L 13,1 9,1 Z" style="fill:#1e80ff"/>
 <rect transform="matrix(0,-1,-1,0,0,0)" x="-16.5" y="-16" width="10" height="10" rx="5" ry="5" style="opacity:.2"/>
 <rect transform="matrix(0,-1,-1,0,0,0)" x="-16" y="-16" width="10" height="10" rx="5" ry="5" style="fill:#ffffff"/>
 <path d="m9 1v0.5h4v-0.5h-4zm0 2.2597656a8 8 0 0 0 -5.734375 5.7402344h-2.265625v0.5h2.265625a8 8 0 0 1 5.734375 -5.7402344v-0.5zm4 0.00586v0.5a8 8 0 0 1 5.740234 5.7343744h2.259766v-0.5h-2.259766a8 8 0 0 0 -5.740234 -5.734375z" style="fill:#ffffff;opacity:.2"/>
</svg>

<svg xmlns="http://www.w3.org/2000/svg" width="22" height="22" version="1">
 <path style="opacity:0.2" d="M 9,1.5 9,3.7597656 A 8,8 0 0 0 3.265625,9.5 L 1,9.5 l 0,4 2.2597656,0 A 8,8 0 0 0 9,19.234375 L 9,21.5 l 4,0 0,-2.259766 A 8,8 0 0 0 18.734375,13.5 L 21,13.5 l 0,-4 -2.259766,0 A 8,8 0 0 0 13,3.765625 L 13,1.5 9,1.5 Z"/>
 <path style="fill:#1e80ff" d="M 9,1 9,3.2597656 A 8,8 0 0 0 3.265625,9 L 1,9 1,13 3.2597656,13 A 8,8 0 0 0 9,18.734375 L 9,21 l 4,0 0,-2.259766 A 8,8 0 0 0 18.734375,13 L 21,13 21,9 18.740234,9 A 8,8 0 0 0 13,3.265625 L 13,1 9,1 Z"/>
 <rect style="opacity:0.2" width="10" height="10" x="-16.5" y="-16" rx="5" ry="5" transform="matrix(0,-1,-1,0,0,0)"/>
 <rect style="fill:#ffffff" width="10" height="10" x="-16" y="-16" rx="5" ry="5" transform="matrix(0,-1,-1,0,0,0)"/>
 <path style="opacity:0.2;fill:#ffffff" d="m 9,1 0,0.5 4,0 L 13,1 9,1 Z M 9,3.2597656 A 8,8 0 0 0 3.265625,9 L 1,9 1,9.5 3.265625,9.5 A 8,8 0 0 1 9,3.7597656 l 0,-0.5 z m 4,0.00586 0,0.5 A 8,8 0 0 1 18.740234,9.5 L 21,9.5 21,9 18.740234,9 A 8,8 0 0 0 13,3.265625 Z"/>
</svg>
